X:33
T: Das Schwabentoechterlein
N: Q0073K
O: Mitteleuropa, Deutschland (BRD) , Hessen - Nassau
R: Ballade, Weglaufen, Schwangerschaft, Rueckkehr
M: 4/4
L: 1/8
K: G
D2 | G2G2GBdB | B2A2A2z
A | A2B2c2ce | e4d2z
d | c2c2B3A | BGdBA2z
c | B2G2A2F2 | A4G2

@@@ Tune index: 1088
